;FLAVOR:UltiGCode
;TIME:5587
;MATERIAL:17500
;MATERIAL2:0
;NOZZLE_DIAMETER:0.4
;Generated with Cura_SteamEngine 3.5.1
M82 ;absolute extrusion mode

G92 E0
G10
;LAYER_COUNT:225
;LAYER:0
M107
G0 F3600 X90.985 Y91.102 Z0.3
;TYPE:SKIRT
G11
G1 F1800 X91.102 Y90.985 E0.01986
G1 X91.688 Y90.455 E0.11467
G1 X92.324 Y89.988 E0.20936
G1 X93.004 Y89.587 E0.30409
G1 X93.722 Y89.257 E0.39891
G1 X94.469 Y89.002 E0.49363
G1 X95.238 Y88.823 E0.58838
G1 X96.022 Y88.723 E0.68322
G1 X96.617 Y88.7 E0.75467
G1 X126.383 Y88.7 E4.32659
G1 X127.172 Y88.74 E4.42139
G1 X127.952 Y88.859 E4.51608
G1 X128.717 Y89.057 E4.6109
G1 X129.457 Y89.331 E4.70559
G1 X130.166 Y89.679 E4.80037
G1 X130.837 Y90.097 E4.89524
G1 X131.461 Y90.58 E4.98993
G1 X131.898 Y90.985 E5.06142
G1 X132.015 Y91.102 E5.08128
G1 X132.545 Y91.688 E5.1761
G1 X133.012 Y92.324 E5.27078
G1 X133.413 Y93.004 E5.36551
G1 X133.743 Y93.722 E5.46034
G1 X133.998 Y94.469 E5.55506
G1 X134.177 Y95.238 E5.6498
G1 X134.277 Y96.022 E5.74464
G1 X134.3 Y96.617 E5.8161
G1 X134.3 Y126.383 E9.38802
G1 X134.26 Y127.172 E9.48282
G1 X134.141 Y127.952 E9.5775
G1 X133.943 Y128.717 E9.67233
G1 X133.669 Y129.457 E9.76702
G1 X133.321 Y130.166 E9.8618
G1 X132.903 Y130.837 E9.95666
G1 X132.42 Y131.461 E10.05135
G1 X132.015 Y131.898 E10.12285
G1 X131.898 Y132.015 E10.14271
G1 X131.312 Y132.545 E10.23752
G1 X130.676 Y133.012 E10.33221
G1 X129.996 Y133.413 E10.42694
G1 X129.278 Y133.743 E10.52176
G1 X128.531 Y133.998 E10.61648
G1 X127.762 Y134.177 E10.71123
G1 X126.978 Y134.277 E10.80607
G1 X126.383 Y134.3 E10.87752
G1 X96.617 Y134.3 E14.44944
G1 X95.828 Y134.26 E14.54424
G1 X95.048 Y134.141 E14.63893
G1 X94.283 Y133.943 E14.73375
G1 X93.543 Y133.669 E14.82844
G1 X92.834 Y133.321 E14.92322
G1 X92.163 Y132.903 E15.01809
G1 X91.539 Y132.42 E15.11278
G1 X91.102 Y132.015 E15.18427
G1 X90.985 Y131.898 E15.20413
G1 X90.455 Y131.312 E15.29895
G1 X89.988 Y130.676 E15.39363
G1 X89.587 Y129.996 E15.48836
G1 X89.257 Y129.278 E15.58319
G1 X89.002 Y128.531 E15.67791
G1 X88.823 Y127.762 E15.77265
G1 X88.723 Y126.978 E15.86749
G1 X88.7 Y126.383 E15.93895
G1 X88.7 Y96.617 E19.51087
G1 X88.74 Y95.828 E19.60567
G1 X88.859 Y95.048 E19.70035
G1 X89.057 Y94.283 E19.79518
G1 X89.331 Y93.543 E19.88987
G1 X89.679 Y92.834 E19.98465
G1 X90.097 Y92.163 E20.07951
G1 X90.58 Y91.539 E20.1742
G1 X90.985 Y91.102 E20.2457
G0 F3600 X91.267 Y91.384
G1 F1800 X91.384 Y91.267 E20.26556
G1 X91.956 Y90.753 E20.35784
G1 X92.578 Y90.3 E20.45017
G1 X93.243 Y89.914 E20.54244
G1 X93.945 Y89.599 E20.63477
G1 X94.676 Y89.359 E20.7271
G1 X95.427 Y89.196 E20.81932
G1 X96.192 Y89.112 E20.91167
G1 X96.617 Y89.1 E20.96269
G1 X126.383 Y89.1 E24.53461
G1 X127.151 Y89.14 E24.6269
G1 X127.911 Y89.259 E24.71921
G1 X128.654 Y89.457 E24.81148
G1 X129.373 Y89.731 E24.90381
G1 X130.059 Y90.078 E24.99606
G1 X130.706 Y90.494 E25.08837
G1 X131.306 Y90.975 E25.18065
G1 X131.616 Y91.267 E25.23175
G1 X131.733 Y91.384 E25.25161
G1 X132.247 Y91.956 E25.34389
G1 X132.7 Y92.578 E25.43623
G1 X133.086 Y93.243 E25.5285
G1 X133.401 Y93.945 E25.62083
G1 X133.641 Y94.676 E25.71315
G1 X133.804 Y95.427 E25.80537
G1 X133.888 Y96.192 E25.89772
G1 X133.9 Y96.617 E25.94875
G1 X133.9 Y126.383 E29.52067
G1 X133.86 Y127.151 E29.61295
G1 X133.741 Y127.911 E29.70526
G1 X133.543 Y128.654 E29.79753
G1 X133.269 Y129.373 E29.88987
G1 X132.922 Y130.059 E29.98212
G1 X132.506 Y130.706 E30.07442
G1 X132.025 Y131.306 E30.1667
G1 X131.733 Y131.616 E30.21781
G1 X131.616 Y131.733 E30.23766
G1 X131.044 Y132.247 E30.32994
G1 X130.422 Y132.7 E30.42228
G1 X129.757 Y133.086 E30.51455
G1 X129.055 Y133.401 E30.60688
G1 X128.324 Y133.641 E30.69921
G1 X127.573 Y133.804 E30.79143
G1 X126.808 Y133.888 E30.88378
G1 X126.383 Y133.9 E30.9348
G1 X96.617 Y133.9 E34.50672
G1 X95.849 Y133.86 E34.599
G1 X95.089 Y133.741 E34.69131
G1 X94.346 Y133.543 E34.78359
G1 X93.627 Y133.269 E34.87592
G1 X92.941 Y132.922 E34.96817
G1 X92.294 Y132.506 E35.06047
G1 X91.694 Y132.025 E35.15275
G1 X91.384 Y131.733 E35.20386
G1 X91.267 Y131.616 E35.22371
G1 X90.753 Y131.044 E35.316
G1 X90.3 Y130.422 E35.40833
G1 X89.914 Y129.757 E35.5006
G1 X89.599 Y129.055 E35.59293
G1 X89.359 Y128.324 E35.68526
G1 X89.196 Y127.573 E35.77748
G1 X89.112 Y126.808 E35.86983
G1 X89.1 Y126.383 E35.92085
G1 X89.1 Y96.617 E39.49277
G1 X89.14 Y95.849 E39.58506
G1 X89.259 Y95.089 E39.67737
G1 X89.457 Y94.346 E39.76964
G1 X89.731 Y93.627 E39.86197
G1 X90.078 Y92.941 E39.95422
G1 X90.494 Y92.294 E40.04653
G1 X90.975 Y91.694 E40.13881
G1 X91.267 Y91.384 E40.18991
G0 F3600 X91.55 Y91.667
G1 F1800 X91.667 Y91.55 E40.20977
G1 X92.224 Y91.05 E40.29959
G1 X92.83 Y90.613 E40.38924
G1 X93.48 Y90.242 E40.47905
G1 X94.166 Y89.943 E40.56885
G1 X94.88 Y89.719 E40.65865
G1 X95.613 Y89.572 E40.74836
G1 X96.617 Y89.5 E40.86915
G1 X126.383 Y89.5 E44.44107
G1 X127.13 Y89.54 E44.53084
G1 X127.868 Y89.659 E44.62054
G1 X128.59 Y89.857 E44.71038
G1 X129.286 Y90.13 E44.8001
G1 X129.949 Y90.477 E44.8899
G1 X130.572 Y90.892 E44.97972
G1 X131.333 Y91.55 E45.10045
G1 X131.45 Y91.667 E45.1203
G1 X131.95 Y92.224 E45.21012
G1 X132.387 Y92.83 E45.29978
G1 X132.758 Y93.48 E45.38959
G1 X133.057 Y94.166 E45.47939
G1 X133.281 Y94.88 E45.56919
G1 X133.428 Y95.613 E45.6589
G1 X133.5 Y96.617 E45.77969
G1 X133.5 Y126.383 E49.35161
G1 X133.46 Y127.13 E49.44138
G1 X133.341 Y127.868 E49.53108
G1 X133.143 Y128.59 E49.62092
G1 X132.87 Y129.286 E49.71063
G1 X132.523 Y129.949 E49.80043
G1 X132.108 Y130.572 E49.89026
G1 X131.45 Y131.333 E50.01098
G1 X131.333 Y131.45 E50.03084
G1 X130.776 Y131.95 E50.12066
G1 X130.17 Y132.387 E50.21031
G1 X129.52 Y132.758 E50.30012
G1 X128.834 Y133.057 E50.38992
G1 X128.12 Y133.281 E50.47972
G1 X127.387 Y133.428 E50.56943
G1 X126.383 Y133.5 E50.69022
G1 X96.617 Y133.5 E54.26214
G1 X95.87 Y133.46 E54.35191
G1 X95.132 Y133.341 E54.44161
G1 X94.41 Y133.143 E54.53145
G1 X93.714 Y132.87 E54.62117
G1 X93.051 Y132.523 E54.71097
G1 X92.428 Y132.108 E54.8008
G1 X91.667 Y131.45 E54.92152
G1 X91.55 Y131.333 E54.94137
G1 X91.05 Y130.776 E55.03119
G1 X90.613 Y130.17 E55.12085
G1 X90.242 Y129.52 E55.21066
G1 X89.943 Y128.834 E55.30046
G1 X89.719 Y128.12 E55.39026
G1 X89.572 Y127.387 E55.47997
G1 X89.5 Y126.383 E55.60076
G1 X89.5 Y96.617 E59.17268
G1 X89.54 Y95.87 E59.26245
G1 X89.659 Y95.132 E59.35215
G1 X89.857 Y94.41 E59.44199
G1 X90.13 Y93.714 E59.5317
G1 X90.477 Y93.051 E59.6215
G1 X90.892 Y92.428 E59.71133
G1 X91.55 Y91.667 E59.83205
G0 F3600 X91.833 Y91.95
G1 F1800 X91.95 Y91.833 E59.85191
G1 X92.491 Y91.349 E59.93902
G1 X93.082 Y90.926 E60.02623
G1 X93.716 Y90.572 E60.11337
G1 X94.385 Y90.289 E60.20053
G1 X95.081 Y90.081 E60.2877
G1 X95.796 Y89.951 E60.37491
G1 X96.617 Y89.9 E60.47362
G1 X126.383 Y89.9 E64.04554
G1 X127.108 Y89.94 E64.13267
G1 X127.825 Y90.059 E64.21989
G1 X128.524 Y90.257 E64.30707
G1 X129.197 Y90.53 E64.39422
G1 X129.836 Y90.875 E64.48136
G1 X130.433 Y91.289 E64.56854
G1 X131.05 Y91.833 E64.66725
G1 X131.167 Y91.95 E64.68711
G1 X131.651 Y92.491 E64.77422
G1 X132.074 Y93.082 E64.86143
G1 X132.428 Y93.716 E64.94857
G1 X132.711 Y94.385 E65.03573
G1 X132.919 Y95.081 E65.1229
G1 X133.049 Y95.796 E65.21011
G1 X133.1 Y96.617 E65.30882
G1 X133.1 Y126.383 E68.88074
G1 X133.06 Y127.108 E68.96787
G1 X132.941 Y127.825 E69.05509
G1 X132.743 Y128.524 E69.14227
G1 X132.47 Y129.197 E69.22942
G1 X132.125 Y129.836 E69.31656
G1 X131.711 Y130.433 E69.40374
G1 X131.167 Y131.05 E69.50245
G1 X131.05 Y131.167 E69.52231
G1 X130.509 Y131.651 E69.60942
G1 X129.918 Y132.074 E69.69663
G1 X129.284 Y132.428 E69.78377
G1 X128.615 Y132.711 E69.87094
G1 X127.919 Y132.919 E69.9581
G1 X127.204 Y133.049 E70.04531
G1 X126.383 Y133.1 E70.14402
G1 X96.617 Y133.1 E73.71594
G1 X95.892 Y133.06 E73.80307
G1 X95.175 Y132.941 E73.89029
G1 X94.476 Y132.743 E73.97747
G1 X93.803 Y132.47 E74.06462
G1 X93.164 Y132.125 E74.15176
G1 X92.567 Y131.711 E74.23895
G1 X91.95 Y131.167 E74.33765
G1 X91.833 Y131.05 E74.35751
G1 X91.349 Y130.509 E74.44462
G1 X90.926 Y129.918 E74.53183
G1 X90.572 Y129.284 E74.61897
G1 X90.289 Y128.615 E74.70614
G1 X90.081 Y127.919 E74.79331
G1 X89.951 Y127.204 E74.88051
G1 X89.9 Y126.383 E74.97922
G1 X89.9 Y96.617 E78.55114
G1 X89.94 Y95.892 E78.63827
G1 X90.059 Y95.175 E78.72549
G1 X90.257 Y94.476 E78.81267
G1 X90.53 Y93.803 E78.89982
G1 X90.875 Y93.164 E78.98696
G1 X91.289 Y92.567 E79.07415
G1 X91.833 Y91.95 E79.17285
G0 F3600 X92.116 Y92.233
G1 F1800 X92.233 Y92.116 E79.19271
G1 X92.758 Y91.647 E79.27719
G1 X93.333 Y91.241 E79.36165
G1 X93.951 Y90.903 E79.44618
G1 X94.602 Y90.636 E79.53062
G1 X95.28 Y90.446 E79.61511
G1 X95.975 Y90.333 E79.69961
G1 X96.617 Y90.3 E79.77675
G1 X126.383 Y90.3 E83.34867
G1 X127.086 Y90.34 E83.43316
G1 X127.78 Y90.459 E83.51766
G1 X128.455 Y90.657 E83.60207
G1 X129.104 Y90.929 E83.68652
G1 X129.718 Y91.274 E83.77103
G1 X130.289 Y91.685 E83.85545
G1 X130.767 Y92.116 E83.93269
G1 X130.884 Y92.233 E83.95254
G1 X131.353 Y92.758 E84.03702
G1 X131.759 Y93.333 E84.12149
G1 X132.097 Y93.951 E84.20601
G1 X132.364 Y94.602 E84.29045
G1 X132.554 Y95.28 E84.37494
G1 X132.667 Y95.975 E84.45944
G1 X132.7 Y96.617 E84.53658
G1 X132.7 Y126.383 E88.1085
G1 X132.66 Y127.086 E88.193
G1 X132.541 Y127.78 E88.27749
G1 X132.343 Y128.455 E88.36191
G1 X132.071 Y129.104 E88.44635
G1 X131.726 Y129.718 E88.53086
G1 X131.315 Y130.289 E88.61529
G1 X130.884 Y130.767 E88.69252
G1 X130.767 Y130.884 E88.71238
G1 X130.242 Y131.353 E88.79686
G1 X129.667 Y131.759 E88.88132
G1 X129.049 Y132.097 E88.96585
G1 X128.398 Y132.364 E89.05028
G1 X127.72 Y132.554 E89.13478
G1 X127.025 Y132.667 E89.21927
G1 X126.383 Y132.7 E89.29642
G1 X96.617 Y132.7 E92.86834
G1 X95.914 Y132.66 E92.95283
G1 X95.22 Y132.541 E93.03733
G1 X94.545 Y132.343 E93.12174
G1 X93.896 Y132.071 E93.20618
G1 X93.282 Y131.726 E93.2907
G1 X92.711 Y131.315 E93.37512
G1 X92.233 Y130.884 E93.45236
G1 X92.116 Y130.767 E93.47221
G1 X91.647 Y130.242 E93.55669
G1 X91.241 Y129.667 E93.64116
G1 X90.903 Y129.049 E93.72568
G1 X90.636 Y128.398 E93.81012
G1 X90.446 Y127.72 E93.89461
G1 X90.333 Y127.025 E93.97911
G1 X90.3 Y126.383 E94.05625
G1 X90.3 Y96.617 E97.62817
G1 X90.34 Y95.914 E97.71267
G1 X90.459 Y95.22 E97.79716
G1 X90.657 Y94.545 E97.88157
G1 X90.929 Y93.896 E97.96602
G1 X91.274 Y93.282 E98.05053
G1 X91.685 Y92.711 E98.13496
G1 X92.116 Y92.233 E98.21219
G0 F3600 X92.399 Y92.516
G1 F1800 X92.516 Y92.399 E98.23205
G1 X93.025 Y91.946 E98.31381
G1 X93.583 Y91.557 E98.39544
G1 X94.183 Y91.235 E98.47715
G1 X94.817 Y90.986 E98.55889
G1 X95.476 Y90.813 E98.64065
G1 X96.15 Y90.719 E98.72231
G1 X96.617 Y90.7 E98.7784
G1 X126.383 Y90.7 E102.35032
G1 X127.063 Y90.74 E102.43206
G1 X127.733 Y90.859 E102.51372
G1 X128.385 Y91.056 E102.59545
G1 X129.009 Y91.328 E102.67713
G1 X129.597 Y91.672 E102.75888
G1 X130.141 Y92.082 E102.84063
G1 X130.484 Y92.399 E102.89667
G1 X130.601 Y92.516 E102.91653
G1 X131.054 Y93.025 E102.9983
G1 X131.443 Y93.583 E103.07992
G1 X131.765 Y94.183 E103.16163
G1 X132.014 Y94.817 E103.24337
G1 X132.187 Y95.476 E103.32513
G1 X132.281 Y96.15 E103.40679
G1 X132.3 Y96.617 E103.46288
G1 X132.3 Y126.383 E107.0348
G1 X132.26 Y127.063 E107.11654
G1 X132.141 Y127.733 E107.1982
G1 X131.944 Y128.385 E107.27993
G1 X131.672 Y129.009 E107.36162
G1 X131.328 Y129.597 E107.44337
G1 X130.918 Y130.141 E107.52511
G1 X130.601 Y130.484 E107.58116
G1 X130.484 Y130.601 E107.60101
G1 X129.975 Y131.054 E107.68278
G1 X129.417 Y131.443 E107.7644
G1 X128.817 Y131.765 E107.84612
G1 X128.183 Y132.014 E107.92785
G1 X127.524 Y132.187 E108.00961
G1 X126.85 Y132.281 E108.09128
G1 X126.383 Y132.3 E108.14736
G1 X96.617 Y132.3 E111.71928
G1 X95.937 Y132.26 E111.80102
G1 X95.267 Y132.141 E111.88268
G1 X94.615 Y131.944 E111.96441
G1 X93.991 Y131.672 E112.0461
G1 X93.403 Y131.328 E112.12785
G1 X92.859 Y130.918 E112.20959
G1 X92.516 Y130.601 E112.26564
G1 X92.399 Y130.484 E112.28549
G1 X91.946 Y129.975 E112.36726
G1 X91.557 Y129.417 E112.44889
G1 X91.235 Y128.817 E112.5306
G1 X90.986 Y128.183 E112.61234
G1 X90.813 Y127.524 E112.6941
G1 X90.719 Y126.85 E112.77576
G1 X90.7 Y126.383 E112.83184
G1 X90.7 Y96.617 E116.40376
G1 X90.74 Y95.937 E116.48551
G1 X90.859 Y95.267 E116.56716
G1 X91.056 Y94.615 E116.6489
G1 X91.328 Y93.991 E116.73058
G1 X91.672 Y93.403 E116.81233
G1 X92.082 Y92.859 E116.89407
G1 X92.399 Y92.516 E116.95012
G0 F3600 X92.682 Y92.799
G1 F1800 X92.799 Y92.682 E116.96998
G1 X93.291 Y92.246 E117.04886
G1 X93.832 Y91.874 E117.12765
G1 X94.414 Y91.57 E117.20644
G1 X95.029 Y91.339 E117.28528
G1 X95.668 Y91.184 E117.36418
G1 X96.617 Y91.1 E117.47851
G1 X126.383 Y91.1 E121.05043
G1 X127.039 Y91.14 E121.12929
G1 X127.685 Y91.259 E121.20812
G1 X128.312 Y91.456 E121.28698
G1 X128.91 Y91.728 E121.36582
G1 X129.471 Y92.07 E121.44466
G1 X130.201 Y92.682 E121.55897
G1 X130.318 Y92.799 E121.57883
G1 X130.754 Y93.291 E121.65771
G1 X131.126 Y93.832 E121.7365
G1 X131.43 Y94.414 E121.81529
G1 X131.661 Y95.029 E121.89413
G1 X131.816 Y95.668 E121.97303
G1 X131.9 Y96.617 E122.08736
G1 X131.9 Y126.383 E125.65928
G1 X131.86 Y127.039 E125.73814
G1 X131.741 Y127.685 E125.81697
G1 X131.544 Y128.312 E125.89583
G1 X131.272 Y128.91 E125.97467
G1 X130.93 Y129.471 E126.05351
G1 X130.318 Y130.201 E126.16782
G1 X130.201 Y130.318 E126.18768
G1 X129.709 Y130.754 E126.26657
G1 X129.168 Y131.126 E126.34535
G1 X128.586 Y131.43 E126.42415
G1 X127.971 Y131.661 E126.50298
G1 X127.332 Y131.816 E126.58188
G1 X126.383 Y131.9 E126.69621
G1 X96.617 Y131.9 E130.26813
G1 X95.961 Y131.86 E130.347
G1 X95.315 Y131.741 E130.42582
G1 X94.688 Y131.544 E130.50469
G1 X94.09 Y131.272 E130.58352
G1 X93.529 Y130.93 E130.66236
G1 X92.799 Y130.318 E130.77668
G1 X92.682 Y130.201 E130.79653
G1 X92.246 Y129.709 E130.87542
G1 X91.874 Y129.168 E130.95421
G1 X91.57 Y128.586 E131.033
G1 X91.339 Y127.971 E131.11183
G1 X91.184 Y127.332 E131.19074
G1 X91.1 Y126.383 E131.30506
G1 X91.1 Y96.617 E134.87698
G1 X91.14 Y95.961 E134.95585
G1 X91.259 Y95.315 E135.03467
G1 X91.456 Y94.688 E135.11354
G1 X91.728 Y94.09 E135.19237
G1 X92.07 Y93.529 E135.27122
G1 X92.682 Y92.799 E135.38553
G0 F3600 X92.964 Y93.081
G1 F1800 X93.081 Y92.964 E135.40538
G1 X93.556 Y92.547 E135.48123
G1 X94.079 Y92.192 E135.55708
G1 X94.643 Y91.906 E135.63297
G1 X95.238 Y91.694 E135.70877
G1 X95.856 Y91.558 E135.7847
G1 X96.617 Y91.5 E135.87629
G1 X126.383 Y91.5 E139.44821
G1 X127.014 Y91.54 E139.52408
G1 X127.635 Y91.659 E139.59995
G1 X128.235 Y91.856 E139.67573
G1 X128.807 Y92.127 E139.75169
G1 X129.339 Y92.467 E139.82745
G1 X129.919 Y92.964 E139.91911
G1 X130.036 Y93.081 E139.93897
G1 X130.453 Y93.556 E140.01481
G1 X130.808 Y94.079 E140.09067
G1 X131.094 Y94.643 E140.16655
G1 X131.306 Y95.238 E140.24235
G1 X131.442 Y95.856 E140.31828
G1 X131.5 Y96.617 E140.40987
G1 X131.5 Y126.383 E143.98179
G1 X131.46 Y127.014 E144.05766
G1 X131.341 Y127.635 E144.13354
G1 X131.144 Y128.235 E144.20932
G1 X130.873 Y128.807 E144.28527
G1 X130.533 Y129.339 E144.36103
G1 X130.036 Y129.919 E144.45269
G1 X129.919 Y130.036 E144.47255
G1 X129.444 Y130.453 E144.5484
G1 X128.921 Y130.808 E144.62425
G1 X128.357 Y131.094 E144.70013
G1 X127.762 Y131.306 E144.77593
G1 X127.144 Y131.442 E144.85186
G1 X126.383 Y131.5 E144.94345
G1 X96.617 Y131.5 E148.51537
G1 X95.986 Y131.46 E148.59124
G1 X95.365 Y131.341 E148.66712
G1 X94.765 Y131.144 E148.7429
G1 X94.193 Y130.873 E148.81885
G1 X93.661 Y130.533 E148.89462
G1 X93.081 Y130.036 E148.98627
G1 X92.964 Y129.919 E149.00613
G1 X92.547 Y129.444 E149.08198
G1 X92.192 Y128.921 E149.15783
G1 X91.906 Y128.357 E149.23371
G1 X91.694 Y127.762 E149.30951
G1 X91.558 Y127.144 E149.38545
G1 X91.5 Y126.383 E149.47703
